X:444
M:6/8
L:1/8
K:G
|:A|B3 B/c/BA|Bdd def|g2f e2d|dBG ABc|B3 B/c/BA|Bdd def|g2e a2g|fdd d2:|

